packages/core/src/svgs/ccv2.svg

<svg width="24" height="24" viewBox="0 0 24 24" fill="none" xmlns="http://www.w3.org/2000/svg">
<g clip-path="url(#clip0_31_8077)">
<path d="M0 0H24V24H0V0Z" fill="#181B1E"/>
<path d="M10.7143 4.71436C10.7143 4.82578 10.7057 5.5115 10.7143 5.67436C10.7528 6.26578 11.2714 6.81864 11.8543 6.98578C12.8143 7.26007 13.5643 7.80864 13.9586 8.74293V8.7515C14.4086 9.88293 15.1928 10.9801 16.2857 11.5544V12.6386C16.2857 13.1529 15.8186 13.5729 15.3728 13.7144H14.4257C13.7914 12.7972 12.5957 12.3215 11.5371 12.1886C10.9999 13.1595 10.7169 14.2505 10.7143 15.3601C10.7143 16.7744 11.16 17.8029 12 18.8572H11.4086C9.64284 18.8572 7.90284 17.8372 6.77141 16.3586C5.99914 15.3706 5.57703 14.1541 5.57141 12.9001C5.57141 9.40721 8.00998 7.62864 9.47141 7.0715C9.4457 6.8915 9.42855 6.72436 9.42855 6.56578C9.41998 6.23578 9.52284 5.96578 9.6557 5.73864C9.81855 5.47293 10.44 4.91578 10.7143 4.71436ZM9.60427 7.66721C8.57695 8.0952 7.70327 8.82416 7.09818 9.75819C6.49309 10.6922 6.18493 11.7876 6.21427 12.9001C6.21427 13.8001 6.4157 14.6358 6.83141 15.3644C7.07456 14.2613 7.71338 13.2855 8.62713 12.6215C9.14141 12.2358 9.70284 11.9786 10.2214 11.8072C9.87598 11.6044 9.58458 11.3212 9.37195 10.9818C9.15931 10.6423 9.03171 10.2565 8.99998 9.85721H9.64284C9.67713 10.8344 10.5343 11.4772 11.4471 11.5715C13.3371 11.7686 14.3528 12.6344 14.7257 13.0715H15.2743C15.4328 13.0115 15.6428 12.8401 15.6428 12.6386V11.9101C15.0428 11.5329 14.0357 10.5686 13.4057 8.97864C13.08 8.20721 12.4757 7.7915 11.6914 7.56436C11.3291 7.46341 10.9987 7.27138 10.7316 7.00656C10.4645 6.74173 10.2697 6.41294 10.1657 6.0515C10.0114 6.30864 9.98141 6.66864 10.0971 7.20864C10.1293 7.3545 10.1722 7.49775 10.2257 7.63721L9.66855 7.8515C9.64564 7.7906 9.62421 7.72915 9.60427 7.66721ZM10.8128 12.2701C10.2471 12.3986 9.58284 12.6558 8.97855 13.1015C8.50254 13.4492 8.10744 13.8959 7.8204 14.4108C7.53336 14.9257 7.36118 15.4966 7.3157 16.0844C8.18642 17.1744 9.42 17.9152 10.7914 18.1715C10.3628 17.4858 10.0714 16.6072 10.0714 15.3644C10.0714 14.3058 10.3586 13.2215 10.8128 12.2701Z" fill="#FFFDFE"/>
<path d="M17.5715 4.28564L12.8572 7.24279C13.2667 7.45846 13.6204 7.76661 13.89 8.14279L17.5715 4.28564Z" fill="#FFFDFE"/>
<path d="M14.1428 18.8571C14.3795 18.8571 14.5714 18.6653 14.5714 18.4286C14.5714 18.1919 14.3795 18 14.1428 18C13.9061 18 13.7142 18.1919 13.7142 18.4286C13.7142 18.6653 13.9061 18.8571 14.1428 18.8571Z" fill="#FFFDFE"/>
<path d="M15.4286 18.8571C15.6653 18.8571 15.8571 18.6653 15.8571 18.4286C15.8571 18.1919 15.6653 18 15.4286 18C15.1919 18 15 18.1919 15 18.4286C15 18.6653 15.1919 18.8571 15.4286 18.8571Z" fill="#FFFDFE"/>
<path d="M11.8285 14.7859H11.1428V14.1431H11.7043C12.0343 14.1431 12.3257 14.3359 12.4457 14.6274L13.4057 16.9288H16.1228L16.4228 16.2859H13.7143V15.6431H16.6585L16.9114 15.0002C16.9543 14.8974 16.8685 14.7859 16.7528 14.7859H13.2857V14.1431H16.7914C17.34 14.1431 17.7128 14.6702 17.52 15.1588L17.2114 15.9302L16.7143 17.1431C16.6071 17.4002 16.3457 17.5716 16.0585 17.5716H13.4785C13.1785 17.5716 12.9128 17.4002 12.8057 17.1302C12.48 16.3288 12.1543 15.5874 11.8285 14.7859Z" fill="#FFFDFE"/>
</g>
<defs>
<clipPath id="clip0_31_8077">
<rect width="24" height="24" fill="white"/>
</clipPath>
</defs>
</svg>

<svg xmlns="http://www.w3.org/2000/svg" width="24" height="24" fill="none" viewBox="0 0 24 24"><g clip-path="url(#a)"><path fill="#181B1E" d="M0 0h24v24H0z"/><path fill="#FFFDFE" d="M10.714 4.714c0 .112-.008.797 0 .96.039.592.557 1.145 1.14 1.312.96.274 1.71.823 2.105 1.757v.008c.45 1.132 1.234 2.23 2.327 2.803v1.085c0 .514-.467.934-.913 1.075h-.947c-.635-.917-1.83-1.392-2.889-1.525a6.6 6.6 0 0 0-.823 3.171c0 1.414.446 2.443 1.286 3.497h-.591c-1.766 0-3.506-1.02-4.638-2.498a5.66 5.66 0 0 1-1.2-3.459c0-3.493 2.439-5.271 3.9-5.828a4 4 0 0 1-.042-.506c-.009-.33.094-.6.227-.827.163-.266.784-.823 1.058-1.025m-1.11 2.953a5.51 5.51 0 0 0-3.39 5.233c0 .9.202 1.736.617 2.464a4.62 4.62 0 0 1 1.796-2.743 5.6 5.6 0 0 1 1.594-.814A2.49 2.49 0 0 1 9 9.857h.643c.034.977.891 1.62 1.804 1.715 1.89.197 2.906 1.062 3.279 1.5h.548c.159-.06.369-.232.369-.433v-.729c-.6-.377-1.607-1.341-2.237-2.931-.326-.772-.93-1.187-1.715-1.415a2.2 2.2 0 0 1-1.525-1.513c-.155.258-.185.618-.069 1.158q.048.22.129.428l-.557.215a4 4 0 0 1-.065-.185m1.209 4.603a5 5 0 0 0-1.834.832 4.08 4.08 0 0 0-1.663 2.982 5.82 5.82 0 0 0 3.475 2.088c-.428-.686-.72-1.565-.72-2.808 0-1.058.288-2.142.742-3.094"/><path fill="#FFFDFE" d="m17.572 4.286-4.715 2.957c.41.215.763.524 1.033.9zM14.143 18.857a.429.429 0 1 0 0-.857.429.429 0 0 0 0 .857M15.429 18.857a.428.428 0 1 0 0-.857.428.428 0 0 0 0 .857M11.829 14.786h-.686v-.643h.561c.33 0 .622.193.742.484l.96 2.302h2.717l.3-.643h-2.709v-.643h2.944l.253-.643c.043-.103-.043-.214-.158-.214h-3.467v-.643h3.505c.549 0 .922.527.729 1.016l-.309.771-.497 1.213a.71.71 0 0 1-.655.429h-2.58a.71.71 0 0 1-.673-.442c-.326-.801-.652-1.543-.977-2.344"/></g><defs><clipPath id="a"><path fill="#fff" d="M0 0h24v24H0z"/></clipPath></defs></svg>
